X: 16440
T: Hag At The Churn, The
R: jig
M: 6/8
K: Dmixolydian
|:AAG ADD|AAG Adc|AAG ADD|EFG EFG:|
AdB c3|Add efg|AdB c2A|GEA GED|
AdB c3|Add efg|age dcA|GEA GED||

